icons/svgs/phone-outline.svg

<svg width="24" height="24" viewBox="0 0 24 24" fill="none" xmlns="http://www.w3.org/2000/svg">
<path d="M16.6484 12.7813L21.0234 14.6563C21.7266 14.9297 22.1172 15.6719 21.9609 16.4141L21.0234 20.7891C20.8672 21.4922 20.2031 22.0391 19.5 22.0391C19.2266 22.0391 18.9922 22 18.7578 22C18.3672 22 17.9766 21.961 17.625 21.9219C8.83594 20.9844 2 13.5625 2 4.50002C2 3.79689 2.50781 3.13283 3.21094 2.97658L7.58594 2.03908C8.32812 1.88283 9.07031 2.27346 9.34375 2.97658L11.2188 7.35158C11.4922 7.97658 11.3359 8.71877 10.7891 9.14846L9.1875 10.4766C10.2422 12.2735 11.7266 13.7578 13.5234 14.8125L14.8516 13.211C15.2812 12.6641 16.0234 12.5078 16.6484 12.7813ZM19.2266 20.125L20.0469 16.2578L16.1406 14.5781L15.0078 15.9844C14.4219 16.6875 13.4062 16.8828 12.5859 16.4141C10.5156 15.2031 8.79688 13.4844 7.58594 11.4141C7.11719 10.5938 7.3125 9.57814 8.01562 8.99221L9.42188 7.85939L7.74219 3.95314L3.875 4.77346C3.99219 13.211 10.7891 20.0078 19.2266 20.125Z" fill="black"/>
</svg>

<svg xmlns="http://www.w3.org/2000/svg" width="24" height="24" fill="currentColor" class="icon-phone-outline" viewBox="0 0 24 24">
  <mask id="a" width="20" height="21" x="2" y="2" maskUnits="userSpaceOnUse" style="mask-type:alpha">
    <path d="m16.648 12.781 4.375 1.875a1.535 1.535 0 0 1 .938 1.758l-.938 4.375c-.156.703-.82 1.25-1.523 1.25-.273 0-.508-.039-.742-.039-.39 0-.781-.039-1.133-.078C8.835 20.984 2 13.562 2 4.5c0-.703.508-1.367 1.21-1.523l4.376-.938a1.535 1.535 0 0 1 1.758.938l1.875 4.375c.273.625.117 1.367-.43 1.796l-1.601 1.329a12.14 12.14 0 0 0 4.335 4.336l1.329-1.602c.43-.547 1.171-.703 1.796-.43m2.579 7.344.82-3.867-3.906-1.68-1.133 1.406a1.91 1.91 0 0 1-2.422.43 13.94 13.94 0 0 1-5-5 1.91 1.91 0 0 1 .43-2.422L9.422 7.86l-1.68-3.906-3.867.82c.117 8.438 6.914 15.235 15.352 15.352"/>
  </mask>
  <g mask="url(#a)">
    <path d="M0 0h24v24H0z"/>
  </g>
</svg>
